src/images/tech/next-js.svg

<svg viewBox="0 0 105 105" fill="none" xmlns="http://www.w3.org/2000/svg">
<g clip-path="url(#clip0_133_259)">
<path d="M52.5 105C81.4949 105 105 81.4949 105 52.5C105 23.505 81.4949 0 52.5 0C23.505 0 0 23.505 0 52.5C0 81.4949 23.505 105 52.5 105Z" fill="white"/>
<path d="M87.2132 91.8865L40.3323 31.5H31.5V73.4828H38.5662V40.4734L81.6654 96.1595C83.6074 94.8598 85.4607 93.4323 87.2132 91.8865Z" fill="url(#paint0_linear_133_259)"/>
<path d="M67.0835 31.5H74.0832V73.5H67.0835V31.5Z" fill="url(#paint1_linear_133_259)"/>
</g>
<defs>
<linearGradient id="paint0_linear_133_259" x1="63.5832" y1="67.9582" x2="84.2915" y2="93.6249" gradientUnits="userSpaceOnUse">
<stop/>
<stop offset="1" stop-color="white" stop-opacity="0"/>
</linearGradient>
<linearGradient id="paint1_linear_133_259" x1="70.5832" y1="31.5" x2="70.466" y2="62.3437" gradientUnits="userSpaceOnUse">
<stop/>
<stop offset="1" stop-color="white" stop-opacity="0"/>
</linearGradient>
<clipPath id="clip0_133_259">
<rect width="105" height="105" fill="white"/>
</clipPath>
</defs>
</svg>

<svg viewBox="0 0 105 105" fill="none" xmlns="http://www.w3.org/2000/svg"><g clip-path="url(#a)"><path d="M52.5 105c28.995 0 52.5-23.505 52.5-52.5S81.495 0 52.5 0 0 23.505 0 52.5 23.505 105 52.5 105z" fill="#fff"/><path d="M87.213 91.886 40.333 31.5H31.5v41.983h7.066v-33.01l43.1 55.686a52.683 52.683 0 0 0 5.547-4.273z" fill="url(#b)"/><path d="M67.084 31.5h7v42h-7v-42z" fill="url(#c)"/></g><defs><linearGradient id="b" x1="63.583" y1="67.958" x2="84.291" y2="93.625" gradientUnits="userSpaceOnUse"><stop/><stop offset="1" stop-color="#fff" stop-opacity="0"/></linearGradient><linearGradient id="c" x1="70.583" y1="31.5" x2="70.466" y2="62.344" gradientUnits="userSpaceOnUse"><stop/><stop offset="1" stop-color="#fff" stop-opacity="0"/></linearGradient><clipPath id="a"><path fill="#fff" d="M0 0h105v105H0z"/></clipPath></defs></svg>
